assets/icons/24px/stroke/beaker-24px.svg

<svg width="24" height="24" viewBox="0 0 24 24" fill="none" xmlns="http://www.w3.org/2000/svg">
<path fill-rule="evenodd" clip-rule="evenodd" d="M8 2C8.55229 2 9 2.44772 9 3V8.66805C9 8.69146 9.00002 8.71468 9.00004 8.73772C9.00032 9.08389 9.00056 9.39001 8.93715 9.69491C8.87373 9.99982 8.75145 10.2804 8.61317 10.5978C8.60397 10.6189 8.59469 10.6402 8.58535 10.6617L6.34964 15.8038C5.78744 17.0969 5.41357 17.9634 5.23694 18.6192C5.06518 19.2569 5.14994 19.4504 5.21415 19.5483C5.27836 19.6462 5.422 19.8011 6.07531 19.8979C6.74714 19.9974 7.69086 20 9.10085 20H14.8992C16.3091 20 17.2529 19.9974 17.9247 19.8979C18.578 19.8011 18.7216 19.6462 18.7859 19.5483C18.8501 19.4504 18.9348 19.2569 18.7631 18.6192C18.5864 17.9634 18.2126 17.0969 17.6504 15.8038L15.4147 10.6617C15.4053 10.6402 15.396 10.6189 15.3868 10.5978C15.2486 10.2805 15.1263 9.99982 15.0629 9.69491C14.9994 9.39001 14.9997 9.08389 15 8.73772C15 8.71468 15 8.69146 15 8.66805V3C15 2.44772 15.4477 2 16 2C16.5523 2 17 2.44772 17 3V8.66805C17 9.12199 17.0048 9.20991 17.021 9.28765C17.0371 9.3654 17.0678 9.44794 17.2488 9.86423L19.5167 15.0805C20.0383 16.28 20.4745 17.283 20.6942 18.099C20.9234 18.9499 20.9865 19.8395 20.4584 20.6449C19.9303 21.4504 19.0894 21.7472 18.2177 21.8763C17.3817 22.0001 16.2879 22.0001 14.9799 22H9.02011C7.71209 22.0001 6.61829 22.0001 5.7823 21.8763C4.91064 21.7472 4.06969 21.4504 3.54159 20.6449C3.01349 19.8395 3.0766 18.9499 3.30576 18.099C3.52555 17.283 3.96172 16.2799 4.48331 15.0804L6.75121 9.86423C6.93221 9.44794 6.96288 9.3654 6.97905 9.28765C6.99522 9.20991 7 9.12199 7 8.66805V3C7 2.44772 7.44772 2 8 2Z" fill="white"/>
<path fill-rule="evenodd" clip-rule="evenodd" d="M6 14C6 13.4477 6.44772 13 7 13L17 13C17.5523 13 18 13.4477 18 14C18 14.5523 17.5523 15 17 15L7 15C6.44772 15 6 14.5523 6 14Z" fill="white"/>
<path fill-rule="evenodd" clip-rule="evenodd" d="M5 3C5 2.44772 5.44772 2 6 2L18 2C18.5523 2 19 2.44772 19 3C19 3.55228 18.5523 4 18 4L6 4C5.44772 4 5 3.55228 5 3Z" fill="white"/>
</svg>

<svg width="24" height="24" fill="none" xmlns="http://www.w3.org/2000/svg"><path fill-rule="evenodd" clip-rule="evenodd" d="M8 2a1 1 0 0 1 1 1v5.738c0 .346 0 .652-.063.957-.063.305-.186.585-.324.903l-.028.064-2.235 5.142c-.563 1.293-.936 2.16-1.113 2.815-.172.638-.087.831-.023.93.064.097.208.252.861.349.672.1 1.616.102 3.026.102h5.798c1.41 0 2.354-.003 3.026-.102.653-.097.797-.252.86-.35.065-.098.15-.291-.022-.929-.177-.656-.55-1.522-1.113-2.815l-2.235-5.142-.028-.064c-.138-.318-.26-.598-.324-.903-.064-.305-.063-.611-.063-.957V3a1 1 0 1 1 2 0v5.668c0 .454.005.542.021.62.016.077.047.16.228.576l2.268 5.216c.521 1.2.957 2.203 1.177 3.019.23.85.293 1.74-.236 2.546-.528.805-1.369 1.102-2.24 1.231-.836.124-1.93.124-3.238.124H9.02c-1.308 0-2.402 0-3.238-.124-.871-.129-1.712-.426-2.24-1.231-.529-.805-.465-1.695-.236-2.546.22-.816.656-1.82 1.177-3.019l2.268-5.216c.181-.416.212-.499.228-.576.016-.078.021-.166.021-.62V3a1 1 0 0 1 1-1z" fill="#fff"/><path fill-rule="evenodd" clip-rule="evenodd" d="M6 14a1 1 0 0 1 1-1h10a1 1 0 1 1 0 2H7a1 1 0 0 1-1-1zM5 3a1 1 0 0 1 1-1h12a1 1 0 1 1 0 2H6a1 1 0 0 1-1-1z" fill="#fff"/></svg>
